flaticon/constructions/socket-9.svg

<svg xmlns="http://www.w3.org/2000/svg" width="32" height="32" viewBox="0 0 24 24">
    <path d="M 21.601562 3.199219 L 2.398438 3.199219 C 1.078125 3.199219 0 4.28125 0 5.601562 L 0 18.398438 C 0 19.71875 1.078125 20.800781 2.398438 20.800781 L 21.601562 20.800781 C 22.921875 20.800781 24 19.71875 24 18.398438 L 24 5.601562 C 24 4.28125 22.921875 3.199219 21.601562 3.199219 Z M 23.199219 18.398438 C 23.199219 19.28125 22.480469 20 21.601562 20 L 2.398438 20 C 1.519531 20 0.800781 19.28125 0.800781 18.398438 L 0.800781 5.601562 C 0.800781 4.71875 1.519531 4 2.398438 4 L 21.601562 4 C 22.480469 4 23.199219 4.71875 23.199219 5.601562 Z M 23.199219 18.398438"/>
    <path d="M 21 4.800781 L 3 4.800781 C 2.238281 4.800781 1.601562 5.441406 1.601562 6.199219 L 1.601562 17.800781 C 1.601562 18.558594 2.238281 19.199219 3 19.199219 L 21 19.199219 C 21.761719 19.199219 22.398438 18.558594 22.398438 17.800781 L 22.398438 6.199219 C 22.398438 5.441406 21.761719 4.800781 21 4.800781 Z M 21.601562 17.800781 C 21.601562 18.121094 21.320312 18.398438 21 18.398438 L 3 18.398438 C 2.679688 18.398438 2.398438 18.121094 2.398438 17.800781 L 2.398438 6.199219 C 2.398438 5.878906 2.679688 5.601562 3 5.601562 L 21 5.601562 C 21.320312 5.601562 21.601562 5.878906 21.601562 6.199219 Z M 21.601562 17.800781"/>
    <path d="M15.601562 11.199219C15.160156 11.199219 14.800781 11.558594 14.800781 12 14.800781 12.441406 15.160156 12.800781 15.601562 12.800781 16.039062 12.800781 16.398438 12.441406 16.398438 12 16.398438 11.558594 16.039062 11.199219 15.601562 11.199219zM18 11.199219C17.558594 11.199219 17.199219 11.558594 17.199219 12 17.199219 12.441406 17.558594 12.800781 18 12.800781 18.441406 12.800781 18.800781 12.441406 18.800781 12 18.800781 11.558594 18.441406 11.199219 18 11.199219zM18 11.199219"/>
    <path d="M17.679688 8C17.601562 7.960938 17.441406 8 17.359375 8.078125 17.238281 8.160156 17.199219 8.28125 17.199219 8.398438L17.199219 9.199219 16.398438 9.199219 16.398438 8.398438C16.398438 8.28125 16.320312 8.160156 16.238281 8.078125 16.160156 8 16.039062 7.960938 15.921875 8 14.121094 8.398438 12.800781 10.078125 12.800781 12 12.800781 13.921875 14.121094 15.601562 15.921875 16 16.039062 16 16.160156 16 16.238281 15.921875 16.359375 15.839844 16.398438 15.71875 16.398438 15.601562L16.398438 14.800781 17.199219 14.800781 17.199219 15.601562C17.199219 15.71875 17.28125 15.839844 17.359375 15.921875 17.441406 15.960938 17.519531 16 17.601562 16 17.640625 16 17.679688 16 17.679688 16 19.480469 15.601562 20.800781 13.921875 20.800781 12 20.800781 10.078125 19.480469 8.398438 17.679688 8zM18 15.039062L18 14.398438C18 14.160156 17.839844 14 17.601562 14L16 14C15.800781 14 15.601562 14.199219 15.601562 14.398438L15.601562 15.039062C14.441406 14.558594 13.601562 13.320312 13.601562 12 13.601562 10.679688 14.441406 9.441406 15.601562 8.960938L15.601562 9.601562C15.601562 9.839844 15.761719 10 16 10L17.601562 10C17.839844 10 18 9.839844 18 9.601562L18 8.960938C19.160156 9.441406 20 10.679688 20 12 20 13.320312 19.160156 14.558594 18 15.039062zM6 11.199219C5.558594 11.199219 5.199219 11.558594 5.199219 12 5.199219 12.441406 5.558594 12.800781 6 12.800781 6.441406 12.800781 6.800781 12.441406 6.800781 12 6.800781 11.558594 6.441406 11.199219 6 11.199219zM8.398438 11.199219C7.960938 11.199219 7.601562 11.558594 7.601562 12 7.601562 12.441406 7.960938 12.800781 8.398438 12.800781 8.839844 12.800781 9.199219 12.441406 9.199219 12 9.199219 11.558594 8.839844 11.199219 8.398438 11.199219zM8.398438 11.199219"/>
    <path d="M 8.078125 8 C 7.960938 7.960938 7.839844 8 7.761719 8.078125 C 7.640625 8.160156 7.601562 8.28125 7.601562 8.398438 L 7.601562 9.199219 L 6.800781 9.199219 L 6.800781 8.398438 C 6.800781 8.28125 6.71875 8.160156 6.640625 8.078125 C 6.558594 8 6.441406 7.960938 6.320312 8 C 4.519531 8.398438 3.199219 10.078125 3.199219 12 C 3.199219 13.921875 4.519531 15.601562 6.320312 16 C 6.441406 16 6.519531 16 6.640625 15.921875 C 6.761719 15.839844 6.800781 15.71875 6.800781 15.601562 L 6.800781 14.800781 L 7.601562 14.800781 L 7.601562 15.601562 C 7.601562 15.71875 7.679688 15.839844 7.761719 15.921875 C 7.839844 15.960938 7.921875 16 8 16 C 8.039062 16 8.078125 16 8.078125 16 C 9.878906 15.601562 11.199219 13.921875 11.199219 12 C 11.199219 10.078125 9.878906 8.398438 8.078125 8 Z M 8.398438 15.039062 L 8.398438 14.398438 C 8.398438 14.160156 8.238281 14 8 14 L 6.398438 14 C 6.160156 14 6 14.160156 6 14.398438 L 6 15.039062 C 4.839844 14.558594 4 13.320312 4 12 C 4 10.679688 4.839844 9.441406 6 8.960938 L 6 9.601562 C 6 9.839844 6.160156 10 6.398438 10 L 8 10 C 8.238281 10 8.398438 9.839844 8.398438 9.601562 L 8.398438 8.960938 C 9.558594 9.441406 10.398438 10.679688 10.398438 12 C 10.398438 13.320312 9.558594 14.558594 8.398438 15.039062 Z M 8.398438 15.039062"/>
</svg>

<svg xmlns="http://www.w3.org/2000/svg" width="32" height="32" viewBox="0 0 24 24">
    <path d="M21.602 3.2H2.398A2.407 2.407 0 0 0 0 5.601v12.796a2.407 2.407 0 0 0 2.398 2.403h19.204A2.407 2.407 0 0 0 24 18.398V5.602a2.407 2.407 0 0 0-2.398-2.403zm1.597 15.198c0 .883-.719 1.602-1.597 1.602H2.398a1.603 1.603 0 0 1-1.597-1.602V5.602C.8 4.719 1.52 4 2.398 4h19.204c.878 0 1.597.719 1.597 1.602zm0 0"/>
    <path d="M21 4.8H3c-.762 0-1.398.641-1.398 1.4v11.6c0 .759.636 1.4 1.398 1.4h18c.762 0 1.398-.641 1.398-1.4V6.2c0-.759-.636-1.4-1.398-1.4zm.602 13c0 .321-.282.598-.602.598H3a.614.614 0 0 1-.602-.597V6.199c0-.32.282-.597.602-.597h18c.32 0 .602.277.602.597zm0 0"/>
    <path d="M15.602 11.2a.802.802 0 0 0 0 1.6.801.801 0 0 0 0-1.6zm0 0M18 11.2a.802.802 0 0 0 0 1.6.802.802 0 0 0 0-1.6zm0 0"/>
    <path d="M17.68 8c-.078-.04-.239 0-.32.078a.367.367 0 0 0-.16.32V9.2h-.802v-.8c0-.118-.078-.239-.16-.32A.31.31 0 0 0 15.922 8c-1.8.398-3.121 2.078-3.121 4 0 1.922 1.32 3.602 3.12 4 .118 0 .24 0 .317-.078a.367.367 0 0 0 .16-.32V14.8h.801v.8c0 .118.082.239.16.32.082.04.16.079.243.079h.078c1.8-.398 3.12-2.078 3.12-4 0-1.922-1.32-3.602-3.12-4zm.32 7.04v-.642c0-.238-.16-.398-.398-.398H16c-.2 0-.398.2-.398.398v.641c-1.16-.48-2-1.719-2-3.039s.84-2.559 2-3.04v.642c0 .238.16.398.398.398h1.602c.238 0 .398-.16.398-.398V8.96c1.16.48 2 1.719 2 3.039s-.84 2.559-2 3.04zm0 0M6 11.2a.802.802 0 0 0 0 1.6.802.802 0 0 0 0-1.6zm0 0M8.398 11.2a.801.801 0 0 0 0 1.6.802.802 0 0 0 0-1.6zm0 0"/>
    <path d="M8.078 8a.31.31 0 0 0-.316.078.367.367 0 0 0-.16.32V9.2H6.8v-.8c0-.118-.082-.239-.16-.32C6.559 8 6.44 7.96 6.32 8c-1.801.398-3.122 2.078-3.122 4 0 1.922 1.32 3.602 3.121 4 .121 0 .2 0 .32-.078a.367.367 0 0 0 .16-.32V14.8h.802v.8c0 .118.078.239.16.32A.57.57 0 0 0 8 16h.078c1.8-.398 3.121-2.078 3.121-4 0-1.922-1.32-3.602-3.12-4zm.32 7.04v-.642c0-.238-.16-.398-.398-.398H6.398c-.238 0-.398.16-.398.398v.641C4.84 14.56 4 13.32 4 12s.84-2.559 2-3.04v.642c0 .238.16.398.398.398H8c.238 0 .398-.16.398-.398V8.96c1.16.48 2 1.719 2 3.039s-.84 2.559-2 3.04zm0 0"/>
</svg>
